src/assets/Imgs/profile/github.svg

<svg fill="none" height="16" viewBox="0 0 16 16" width="16" xmlns="http://www.w3.org/2000/svg"><rect fill="#fff" height="16" rx="4" width="16"/><path d="m7.99912 1c-3.86487 0-6.99912 3.21339-6.99912 7.17741-.001575 1.50442.45983 2.97129 1.31901 4.19339.85917 1.222 2.07267 2.1374 3.46899 2.6168.35.0661.47775-.1555.47775-.3459 0-.1706-.00612-.6219-.00962-1.2206-1.94688.4334-2.35813-.9624-2.35813-.9624-.31762-.8293-.777-1.05-.777-1.05-.63612-.445.04725-.4361.04725-.4361.70263.0509 1.07188.7399 1.07188.7399.62475 1.0965 1.63887.7801 2.03787.596.063-.4637.24413-.7801.4445-.9597-1.554-.1814-3.1885-.7971-3.1885-3.5467 0-.78369.273-1.4244.721-1.92661-.07262-.1814-.31237-.91147.06825-1.8989 0 0 .588-.19302 1.925.73543.57115-.1594 1.16053-.24054 1.75263-.24127.59212.0012 1.18147.08263 1.75262.24217 1.3361-.92846 1.9232-.73544 1.9232-.73544.3815.98833.1418 1.7175.07 1.89891.4489.5022.7193 1.14291.7193 1.9266 0 2.75681-1.6363 3.36351-3.1955 3.54131.25112.2217.47512.6595.47512 1.3288 0 .9598-.00875 1.7336-.00875 1.9686 0 .1922.126.4156.48123.345 1.395-.4805 2.607-1.3963 3.465-2.618.8579-1.2218 1.3186-2.68782 1.3169-4.19129 0-3.96402-3.1343-7.17741-7.00088-7.17741z" fill="#0d0c0f"/></svg>

<svg width="16" height="16" viewBox="0 0 16 16" fill="none" xmlns="http://www.w3.org/2000/svg">
<g id="medium">
<rect id="Rectangle 2182" width="16" height="16" rx="4" fill="white"/>
<path id="Vector" d="M7.99912 1C4.13425 1 1 4.21339 1 8.17741C0.998425 9.68183 1.45983 11.1487 2.31901 12.3708C3.17818 13.5928 4.39168 14.5082 5.788 14.9876C6.138 15.0537 6.26575 14.8321 6.26575 14.6417C6.26575 14.4711 6.25963 14.0198 6.25613 13.4211C4.30925 13.8545 3.898 12.4587 3.898 12.4587C3.58038 11.6294 3.121 11.4087 3.121 11.4087C2.48488 10.9637 3.16825 10.9726 3.16825 10.9726C3.87088 11.0235 4.24013 11.7125 4.24013 11.7125C4.86488 12.809 5.879 12.4926 6.278 12.3085C6.341 11.8448 6.52213 11.5284 6.7225 11.3488C5.1685 11.1674 3.534 10.5517 3.534 7.8021C3.534 7.01841 3.807 6.3777 4.255 5.87549C4.18238 5.69409 3.94263 4.96402 4.32325 3.97659C4.32325 3.97659 4.91125 3.78357 6.24825 4.71202C6.8194 4.55262 7.40878 4.47148 8.00088 4.47075C8.593 4.47195 9.18235 4.55338 9.7535 4.71292C11.0896 3.78446 11.6767 3.97748 11.6767 3.97748C12.0582 4.96581 11.8185 5.69498 11.7467 5.87639C12.1956 6.37859 12.466 7.0193 12.466 7.80299C12.466 10.5598 10.8297 11.1665 9.2705 11.3443C9.52162 11.566 9.74562 12.0038 9.74562 12.6731C9.74562 13.6329 9.73687 14.4067 9.73687 14.6417C9.73687 14.8339 9.86287 15.0573 10.2181 14.9867C11.6131 14.5062 12.8251 13.5904 13.6831 12.3687C14.541 11.1469 15.0017 9.68088 15 8.17741C15 4.21339 11.8657 1 7.99912 1Z" fill="#0D0C0F"/>
</g>
</svg>
